X: 39608
T: Telma's
R: jig
M: 6/8
K: Amajor
|:~e3 fea|fec BAF|~e3 fea|baf afd|
~e3 fea|fec BAF|~B3 AFE|FAc~B3:|
|:~F3 AFE|FAB AFE|~F3 AFE|FAB- BAE|
~F3 AFE|FAB AFE|afe fec|1 ABc- cBA:|2 ABc B2c||

